src/22/actions/format-node-line.svg

<svg xmlns="http://www.w3.org/2000/svg" viewBox="0 0 22 22"><path d="M16 3v2.313L10.312 11H11v.688L16.688 6H19V3h-3zm1 1h1v1h-1V4zm-7 7.313L5.312 16H3v3h3v-2.313L10.688 12H10v-.688zM4 17h1v1H4v-1z" fill="currentColor" color="#5d656b"/><path d="M9 10v3h3v-3H9zm1 1h1v1h-1v-1z" fill="currentColor" color="#3daee9"/></svg>

<svg xmlns="http://www.w3.org/2000/svg" viewBox="0 0 22 22">
  <defs id="defs3051">
    <style type="text/css" id="current-color-scheme">
      .ColorScheme-Text {
        color:#5d656b;
      }
      .ColorScheme-Highlight {
        color:#3daee9;
      }
      </style>
  </defs>
 <path 
     style="fill:currentColor;fill-opacity:1;stroke:none" 
     d="M 16 3 L 16 4 L 16 5 L 16 5.3125 L 10.3125 11 L 11 11 L 11 11.6875 L 16.6875 6 L 19 6 L 19 3 L 16 3 z M 17 4 L 18 4 L 18 5 L 17 5 L 17 4 z M 10 11.3125 L 5.3125 16 L 5 16 L 4 16 L 3 16 L 3 19 L 6 19 L 6 16.6875 L 10.6875 12 L 10 12 L 10 11.3125 z M 4 17 L 5 17 L 5 18 L 4 18 L 4 17 z "
     class="ColorScheme-Text"
     />
 <path 
     style="fill:currentColor;fill-opacity:1;stroke:none" 
     d="M 9 10 L 9 13 L 12 13 L 12 10 L 9 10 z M 10 11 L 11 11 L 11 12 L 10 12 L 10 11 z "
     class="ColorScheme-Highlight"
     />
</svg>
